X: 10801
M: 1/4
L: 1/16
K: G
(dc) |\
K: Gm
"Minor"\
(B2A2) (c2B2) | (d2c2) (e2d2) | c2B2A2G2 | ^FGAF D2GA |\
(B2A2) (c2B2) | (d2c2) (e2d2) | c2B2A2G2 | d^cd=e d=Bc"^D.C."A |]


